img/logo_2.svg

<svg width="38" height="38" viewBox="0 0 38 38" fill="none" xmlns="http://www.w3.org/2000/svg">
<rect width="38" height="38" rx="8" fill="#FF6E30"/>
<path fill-rule="evenodd" clip-rule="evenodd" d="M19.9645 12.4359C19.632 12.4359 19.3089 12.4769 19 12.5542C19.1988 10.7606 19.9148 9.12398 20.9963 7.79492C25.2971 8.30464 28.6332 11.9646 28.6332 16.4029V22.7294C28.4605 22.7391 28.2864 22.744 28.1112 22.744C24.6706 22.744 21.6709 20.8483 20.1028 18.0423H23.9315V16.4029C23.9315 14.212 22.1554 12.4359 19.9645 12.4359Z" fill="white"/>
<path fill-rule="evenodd" clip-rule="evenodd" d="M9.25642 16.9507C9.25642 11.625 13.5738 7.30762 18.8995 7.30762C21.5623 7.30762 23.9731 8.38695 25.7182 10.132C24.1095 8.52336 21.9351 7.48044 19.5191 7.32724C17.894 9.12575 16.9044 11.5095 16.9044 14.1243C16.9044 14.3194 16.9099 14.5131 16.9208 14.7055C16.299 15.2538 15.9068 16.0565 15.9068 16.9507V17.6157H21.8922L17.5214 17.6158C18.9445 21.4968 22.672 24.2661 27.0462 24.2661C27.5546 24.2661 28.0543 24.2287 28.5425 24.1565V28.2563H21.8922V24.2661H15.9068V28.2563H9.25642V20.9409V16.9507Z" fill="white"/>
</svg>

<svg xmlns="http://www.w3.org/2000/svg" width="38" height="38" fill="none"><rect width="38" height="38" fill="#FF6E30" rx="8"/><path fill="#fff" fill-rule="evenodd" d="M19.96 12.44c-.33 0-.65.04-.96.11.2-1.79.91-3.43 2-4.76a8.67 8.67 0 0 1 7.63 8.61v6.33a9.17 9.17 0 0 1-8.53-4.69h3.83V16.4c0-2.19-1.77-3.96-3.97-3.96Z" clip-rule="evenodd"/><path fill="#fff" fill-rule="evenodd" d="M9.26 16.95a9.64 9.64 0 0 1 10.26-9.62 10.1 10.1 0 0 0-2.6 7.38 2.99 2.99 0 0 0-1.01 2.24v.67h5.98-4.37a10.15 10.15 0 0 0 11.02 6.54v4.1H21.9v-4h-5.98v4H9.26V16.95Z" clip-rule="evenodd"/></svg>
